!!!!SEGMENT: pl-wtm--r-730-5-m_moniuszko-stanislaw--walc.krn
!!!cenid: 18xx:1682
!!!COM: Moniuszko, Stanisław
!!!COM-rismid: pe30008351
!!!CDT: 1819/05/05-1872/06/04
!!!CNT: Polish
!!!OTL: Walc
!!!PDT:
!!!AGN: Secular; Waltz
!!!SMS-siglum: PL-Wtm
!!!SMS-shelfmark: R 730/5/M
!!!SMS-shelfwork: W
!!!SMS-variant:
!!!SMS-altvar:
!!!NIFC-rismid: 1001099727
!!!URL-scan: http://repozytorium.nifc.pl/skany/pl-wtm-nut--r730m-1-43
!!!ONB-nifc: Skan 0012. No. 754
**kern	**kern	**dynam
*part1	*part1	*part1
*staff2	*staff1	*
*Ipiano	*Ipiano	*
*I"Piano	*I"Piano	*
*	*I'fp	*
*clefF4	*clefG2	*
*k[f#]	*k[f#]	*
*G:	*G:	*
*M3/4	*M3/4	*
=1	=1	=1
4r	8dd/L 8d/	.
.	8dd/J 8d/	.
=2	=2	=2
2.r	4dd/ 4d/	.
.	4r	.
.	8dd/L 8d/	.
.	8dd/J 8d/	.
=3	=3	=3
2.r	4dd/ 4d/	.
.	4r	.
.	8dd/L 8d/	.
.	8dd/J 8d/	.
=4	=4	=4
2.r	4dd/ 4d/	.
.	4dd/ 4d/	.
.	4dd/ 4d/	.
=5	=5	=5
2.r	4dd/ 4d/	.
.	4dd/ 4d/	.
.	8dd/L 8d/	.
.	8dd/J 8d/	.
=6	=6	=6
4GG/	4dd\ 4d\	.
4B\ 4G\ 4D\	4gg\ 4g\	.
4B\ 4G\ 4D\	4bb\ 4b\	.
=7	=7	=7
4GG/	4ddd\ 4dd\	.
4B\ 4G\ 4D\	4r	.
4r	8eee\L 8bb-X\ 8ee\	.
.	8eee\J 8bb-\ 8ee\	.
=8	=8	=8
4GG/	4eee\ 4bb-X\ 4ee\	.
4B-X\ 4E\ 4C#X\	4r	.
4B-\ 4E\ 4C#\	8ddd\L 8bbn\ 8dd\	.
.	8ddd\J 8bb\ 8dd\	.
!!LO:LB:g=original
=9	=9	=9
4GG/	4ddd\ 4bb\ 4dd\	.
4B\ 4G\ 4D\	4r	.
4B\ 4G\ 4D\	8b\L	.
.	8b\J	.
=10	=10	=10
*rep	*	*
4GG/	4dd\	.
4B\ 4G\ 4D\	4gg\	.
4B\ 4G\ 4D\	4bb\	.
*Xrep	*	*
=11	=11	=11
4DD/	4aa\	.
4c\ 4F#\ 4D\	4r	.
4c\ 4F#\ 4D\	8a/L	.
.	8a/J	.
=12	=12	=12
4DD/	4cc\	.
4c\ 4A\ 4D\	4ff#\	.
4c\ 4A\ 4D\	4aa\	.
=13	=13	=13
4GG/	4gg\	.
4B\ 4G\ 4D\	4r	.
4B\ 4G\ 4D\	8dd/L 8d/	.
.	8dd/J 8d/	.
=14	=14	=14
*rep	*	*
4GG/	4dd\ 4d\	.
4B\ 4G\ 4D\	4gg\ 4g\	.
4B\ 4G\ 4D\	4bb\ 4b\	.
*Xrep	*	*
=15	=15	=15
4GG/	4ddd\ 4dd\	.
4B\ 4G\ 4D\	4r	.
4r	8eee\L 8bb-X\ 8ee\	.
.	8eee\J 8bb-\ 8ee\	.
=16	=16	=16
4GG/	4eee\ 4bb-X\ 4ee\	.
4B-X\ 4E\ 4C#X\	4r	.
4B-\ 4E\ 4C#\	8fff#\L 8aa#X\ 8ff#\	.
.	8fff#\J 8aa#\ 8ff#\	.
=17	=17	=17
*	*^	*
4FF#/	2fff#/	4aa#X\ 4ff#\	.
4A#X\ 4E\ 4C#X\	.	4rb	.
4A#\ 4E\ 4C#\	4eee/	4ryy	.
*	*v	*v	*
=18	=18	=18
4BB/	4.ddd\ 4.dd\	.
4d\ 4B\ 4F#\	.	.
.	8ccc\ 8cc\	.
4d\ 4B\ 4F#\	4bb\ 4b\	.
!!LO:LB:g=original
=19	=19	=19
4FF#/	4.ccc\ 4.cc\	.
4e\ 4A#X\ 4F#\	.	.
.	8bb\ 8b\	.
4e\ 4c\ 4F#\	4aa#X\ 4a#X\	.
=20	=20	=20
8d\L 8B\	8bb\L 8b\	.
8B\J	8b\J	.
4B\	4b\	.
4B\	4b\	.
=21	=21	=21
4B\	4b\	.
4B\	4r	.
.	.	f
4r	4b/ 4g/	.
=22	=22	=22
*	*2\right	*
4DD/	2cc\ 2a\	.
4c\ 4A\ 4F#\ 4D\	.	.
4c\ 4A\ 4F#\ 4D\	4dd\ 4b\	.
=23	=23	=23
*rep	*	*
4DD/	2ee\ 2cc\	.
4c\ 4A\ 4F#\ 4D\	.	.
4c\ 4A\ 4F#\ 4D\	4ff#\ 4a\	.
*Xrep	*	*
=24	=24	=24
4GG/	4gg\ 4b\	.
4B\ 4G\ 4D\	4r	.
4B\ 4G\ 4D\	4bb\ 4gg\	.
=25	=25	=25
*rep	*	*
.	(<8qccc/ 8qaa/	.
4GG/	4bb\ 4gg\)	.
4B\ 4G\ 4D\	4aa\ 4ff#\	.
4B\ 4G\ 4D\	4bb\ 4gg\	.
*Xrep	*	*
=26	=26	=26
4DD/	2ccc\ 2aa\	.
4c\ 4A\ 4F#\ 4D\	.	.
4c\ 4A\ 4F#\ 4D\	4aa\ 4ff#\	.
=27	=27	=27
*rep	*	*
.	(<8qbb/ 8qgg/	.
4DD/	4aa\ 4ff#\)	.
4c\ 4A\ 4F#\ 4D\	4gg\ 4ee\	.
4c\ 4A\ 4F#\ 4D\	4aa\ 4ff#\	.
*Xrep	*	*
=28	=28	=28
4GG/	4bb\ 4gg\	.
4B\ 4G\ 4D\	4r	.
4B\ 4G\ 4D\	(4gg\ 4dd\	.
=29	=29	=29
*rep	*	*
4GG/	4dd\ 4b\)	.
4B\ 4G\ 4D\	4r	.
4B\ 4G\ 4D\	4b/ 4g/	.
*Xrep	*	*
!!LO:LB:g=original
=30	=30	=30
4DD/	2cc/ 2a/	.
4c\ 4A\ 4F#\ 4D\	.	.
4c\ 4A\ 4F#\ 4D\	4dd\ 4b\	.
=31	=31	=31
*rep	*	*
4DD/	2ee\ 2cc\	.
4c\ 4A\ 4F#\ 4D\	.	.
4c\ 4A\ 4F#\ 4D\	4ff#\ 4a\	.
*Xrep	*	*
=32	=32	=32
4GG/	4gg\ 4b\	.
4B\ 4G\ 4D\	4r	.
4B\ 4G\ 4D\	8gg\L	.
.	8aa\J	.
=33	=33	=33
4C#X/	4gg\	.
4e\ 4B-X\ 4G\	4ff#\	.
4e\ 4B-\ 4G\	4ee\	.
=34	=34	=34
4D\	4dd\	.
4d\ 4B\ 4G\	4r	.
4d\ 4B\ 4G\	8gg\L	.
.	8bb\J	.
=35	=35	=35
4D\	4eee\	.
4c\ 4A\ 4F#\	4ddd\	.
4c\ 4A\ 4F#\	4ff#\	.
=36	=36	=36
4B\ 4G\	4gg\	.
8B\L	8b\L	.
8B\J	8b\J	.
4B\	4b\	.
=37	=37	=37
4B\	4b\	.
4d\	4b\	.
4r	4b/ 4g/	.
=38	=38	=38
4DD/	2cc\ 2a\	.
4c\ 4A\ 4F#\ 4D\	.	.
4c\ 4A\ 4F#\ 4D\	4dd\ 4b\	.
=39	=39	=39
*rep	*	*
4DD/	2ee\ 2cc\	.
4c\ 4A\ 4F#\ 4D\	.	.
4c\ 4A\ 4F#\ 4D\	4ff#\ 4a\	.
*Xrep	*	*
=40	=40	=40
4GG/	4gg\ 4b\	.
4B\ 4G\ 4D\	4r	.
4B\ 4G\ 4D\	4bb\ 4gg\	.
=41	=41	=41
*rep	*	*
.	8qccc/ 8qaa/	.
4GG/	4bb\ 4gg\	.
4B\ 4G\ 4D\	4aa\ 4ff#\	.
4B\ 4G\ 4D\	4bb\ 4gg\	.
*Xrep	*	*
!!LO:LB:g=original
=42	=42	=42
4DD/	2ccc\ 2aa\	.
4c\ 4A\ 4F#\ 4D\	.	.
4c\ 4A\ 4F#\ 4D\	4aa\ 4ff#\	.
=43	=43	=43
*rep	*	*
.	8qbb/ 8qgg/	.
4DD/	4aa\ 4ff#\	.
4c\ 4A\ 4F#\ 4D\	4gg\ 4ee\	.
4c\ 4A\ 4F#\ 4D\	4aa\ 4ff#\	.
*Xrep	*	*
=44	=44	=44
4GG/	4bb\ 4gg\	.
4B\ 4G\ 4D\	4r	.
4B\ 4G\ 4D\	(4gg\ 4dd\	.
=45	=45	=45
*rep	*	*
4GG/	4dd\ 4b\)	.
4B\ 4G\ 4D\	4r	.
4B\ 4G\ 4D\	4b/ 4g/	.
*Xrep	*	*
=46	=46	=46
4DD/	2cc\ 2a\	.
4c\ 4A\ 4F#\ 4D\	.	.
4c\ 4A\ 4F#\ 4D\	4dd\ 4b\	.
=47	=47	=47
*rep	*	*
4DD/	2ee\ 2cc\	.
4c\ 4A\ 4F#\ 4D\	.	.
4c\ 4A\ 4F#\ 4D\	4ff#\ 4a\	.
*Xrep	*	*
=48	=48	=48
4GG/	4gg\ 4b\	.
4B\ 4G\ 4D\	4r	.
4B\ 4G\ 4D\	8ff#\L	>
.	8ff#\J	.
=49	=49	=49
4E\	4gg\	.
4c#X\ 4B-X\ 4G\	4aa\	.
4c#\ 4B-\ 4G\	4gg\	]]
=50	=50	=50
4Fn\	2ffn\	p
4d\ 4B-X\	.	.
!	!LO:TUP:a:problem:klamra łukowa	!
4d\ 4B-\	12dd\L	.
.	12b-X\	.
.	12dd\J	.
=51	=51	=51
!LO:SIC:s:v=FFn	!	!
4FF#/	2ffn\	p
4e-X\ 4A\	.	.
!	!LO:TX:t=P:problem:mixed beam	!
!	!LO:TUP:a:problem:klamra łukowa	!
4e-\ 4A\	12ee-X\L	.
.	12g/	.
.	12a/J	.
=52||	=52||	=52||
*k[fnb-e-]	*k[fnb-e-]	*
!LO:TX:t=P:problem:kolejność znaków Fn BB- E-	!LO:TX:t=P:problem:kolejność znaków ffn b- ee-	!
4BB-/	4b-\	p
4d\ 4B-\ 4F\	4r	.
4d\ 4B-\ 4F\	(8d/L	.
.	8f/J	.
=53	=53	=53
*rep	*	*
4BB-/	8b-/L	.
.	8f/	.
4d\ 4B-\ 4F\	8b-/	.
.	8dd/	.
4d\ 4B-\ 4F\	8gg^/	.
.	8ff/J)	.
*Xrep	*	*
!!LO:PB:g=original
=54	=54	=54
4FF/	4ee-\	.
4e-\ 4A\ 4F\	4r	.
4e-\ 4A\ 4F\	(8a\L	.
.	8cc\J	.
=55	=55	=55
*rep	*	*
4FF/	8ee-\L	.
.	8cc\	.
4e-\ 4A\ 4F\	8ee-\	.
.	8aa\	.
4e-\ 4A\ 4F\	8ddd^\	.
.	8ccc\J)	.
*Xrep	*	*
=56	=56	=56
4BB-/	4bb-\	.
4d\ 4B-\ 4F\	4r	.
4r	8ddd\L 8bb-\	.
.	8ddd\J 8bb-\	.
=57	=57	=57
4GG/	4ddd\ 4bb-\	.
4B-\ 4G\ 4D\	4ccc\ 4aa\	.
4B-\ 4G\ 4D\	4bb-\ 4gg\	.
=58	=58	=58
4DD/	2aa\ 2ff#X\	.
4A\ 4F#X\ 4D\	.	.
4A\ 4F#\ 4D\	8gg\L 8een\	.
.	8aa\J 8ff#\	.
=59	=59	=59
4GG/	2bb-\ 2gg\	.
4B-\ 4G\ 4D\	.	.
4B-\ 4G\ 4D\	8ccc\L 8aa\	.
.	8bb-\J 8gg\	.
=60	=60	=60
4DD/	4aa\ 4ff#X\	.
4A\ 4F#X\ 4D\	4r	.
4r	(8d/L	.
.	8f/J	.
=61	=61	=61
4BB-/	8b-\L	.
.	8f\	.
4d\ 4B-\ 4F\	8b-\	.
.	8dd\	.
4d\ 4B-\ 4F\	8gg^\	.
.	8ff\J)	.
=62	=62	=62
4FF/	4ee-\	.
4e-\ 4A\ 4F\	4r	.
4e-\ 4A\ 4F\	(8a\L	.
.	8cc\J	.
=63	=63	=63
*rep	*	*
4FF/	8ee-\L	.
.	8cc\	.
4e-\ 4A\ 4F\	8ee-\	.
.	8aa\	.
4e-\ 4A\ 4F\	8ddd^\	.
.	8ccc\J)	.
*Xrep	*	*
!!LO:LB:g=original
=64	=64	=64
4BB-/	4bb-\	.
4d\ 4B-\ 4F\	4r	.
4r	8bb-\L	.
.	8bb-\J	.
=65	=65	=65
4GG/	4bb-\ 4dd\	.
4d\ 4D\	4aa\ 4ff#X\ 4dd\	.
4d\ 4D\	4gg\ 4b-\	.
=66	=66	=66
4DD/	2ff#X\ 2dd\	.
4A\ 4F#X\ 4D\	.	.
4A\ 4F#\ 4D\	8gg\L 8een\	.
.	8aa\J 8ff#\	.
=67	=67	=67
4CC#X/	2bb-\ 2gg\	.
4B-X\ 4G\ 4E-\	.	.
4B-\ 4G\ 4E-\	8aa\L 8ff#X\	.
.	8gg\J 8ee-\	.
=68	=68	=68
4DD/	4ff#X\ 4cc\	.
4A\ 4F#X\ 4D\	4dd\	.
4r	8dd/L 8d/	.
.	8dd/J 8d/	.
=69	=69	=69
2.r	4dd/ 4d/	.
.	4r	.
.	8dd/L 8d/	.
.	8dd/J 8d/	.
=70	=70	=70
2.r	4dd/ 4d/	.
.	4r	.
.	8dd/L 8d/	.
.	8dd/J 8d/	.
=71	=71	=71
2.r	4dd/ 4d/	.
.	4dd/ 4d/	.
.	4dd/ 4d/	.
=72	=72	=72
2.r	4dd/ 4d/	.
.	4dd/ 4d/	.
.	8dd/L 8d/	.
.	8dd/J 8d/	.
=73||	=73||	=73||
*k[bnenf#]	*k[bnenf#]	*
!LO:TX:t=P:problem:kolejność znaków BBn En F#	!LO:TX:t=P:problem:kolejność znaków bn een ff#	!
4GG/	4dd\ 4d\	.
4B\ 4G\ 4D\	4gg\ 4g\	.
4B\ 4G\ 4D\	4bb\ 4b\	.
=74	=74	=74
*rep	*	*
4GG/	4ddd\ 4dd\	.
4B\ 4G\ 4D\	4r	.
4B\ 4G\ 4D\	8ccc#X\L	.
.	8eee\J	.
*Xrep	*	*
!!LO:LB:g=original
=75	=75	=75
4GG/	4ddd\	.
4B\ 4G\ 4D\	4bb\	.
4B\ 4G\ 4D\	4gg\	.
=76	=76	=76
*rep	*	*
4GG/	4dd\	.
4B\ 4G\ 4D\	4r	.
4B\ 4G\ 4D\	8dd\L	.
.	8dd\J	.
*Xrep	*	*
=77	=77	=77
*rep	*	*
4GG/	4dd\	.
4B\ 4G\ 4D\	4gg\	.
4B\ 4G\ 4D\	4bb\	.
*Xrep	*	*
=78	=78	=78
4GG/	4aa\	.
4e\ 4c#X\ 4A\ 4G\	4r	.
4e\ 4c#\ 4A\ 4G\	8a/L	.
.	8a/J	.
=79	=79	=79
4GG/	4cc\	.
4d\ 4cn\ 4A\ 4F#\	4ff#\	.
4d\ 4c\ 4A\ 4F#\	4aa\	.
=80	=80	=80
4GG/	4gg\	.
4B\ 4G\	4r	.
4B\ 4G\	8dd\L 8d\	.
.	8dd\J 8d\	.
=81	=81	=81
4GG/	4dd\ 4d\	.
4B\ 4G\ 4D\	4gg\ 4g\	.
4B\ 4G\ 4D\	4bb\ 4b\	.
=82	=82	=82
4GG/	4ddd\ 4dd\	.
4B\ 4G\ 4D\	4r	.
4r	4ddd#X\	.
=83	=83	=83
4BBB/	4ddd#X\	.
!	!LO:SIC:s:v=ccc#	!
4A\ 4F#\ 4BB\	4ccc\	.
4A\ 4F#\ 4BB\	4ddd#\	.
=84	=84	=84
4CC/	2fff#\	.
4G\ 4E\ 4C\	.	.
4G\ 4E\ 4C\	4eee\	.
=85	=85	=85
*rep	*8va	*
!	!LO:TX:t=P:problem:8 = 8va	!
4CC/	4ggg\ 4eee\	.
4G\ 4E\ 4C\	4fff#\ 4ddd\	.
4G\ 4E\ 4C\	4eee\ 4ccc\	.
*Xrep	*	*
!!LO:LB:g=original
=86	=86	=86
4DD/	4ddd\ 4bb\	.
4G\ 4D\ 4BB\	4r	.
!	!LO:TX:t=P:problem:klamra łukowa	!
!	!LO:TUP:b	!
4G\ 4E\ 4D\ 4BB\	12bb/L	.
.	12gg/	.
.	12bb/J	.
=87	=87	=87
4D\	2ddd\	.
4d\ 4A\ 4F#\	.	.
!	!LO:TX:t=P:problem:klamra łukowa	!
!	!LO:TUP:b	!
4d\ 4A\ 4F#\	12bb/L	.
.	12ee/	.
.	12ff#/J	.
=88!|:	=88!|:	=88!|:
!	!LO:TX:a:t=loco.	!
4G\	4gg/	.
*	*X8va	*
4d\	4r	.
4d\	4bb\ 4gg\	.
=89	=89	=89
.	(<8qccc/ 8qaa/	.
4G\	4bb\ 4gg\)	.
4d\	4aa\ 4ff#\	.
4d\	4bb\ 4gg\	.
=90	=90	=90
4F#\	4ccc\ 4aa\	.
4d\	4r	.
4d\	4aa\ 4ff#\	.
=91	=91	=91
.	(<8qbb/ 8qgg/	.
4D\	4aa\ 4ff#\)	.
4d\	4gg\ 4ee\	.
4d\	4aa\ 4ff#\	.
=92	=92	=92
4G\	4bb\ 4gg\	.
4d\	4r	.
4d\	4gg\ 4b\	.
=93	=93	=93
.	(<8qaa/	.
4G\	4gg\ 4b\)	.
4d\	4ff#\ 4a\	.
4d\	4gg\ 4b\	.
=94	=94	=94
*	*^	*
4G\	2bb/	4cc#X\	.
4e\	.	4cc#\	.
4e\	4aa/	4ee\ 4cc#\	.
=95	=95	=95	=95
4G\	8bb/L	4ff#X\ 4cc\	.
.	8aa/	.	.
4d\	8gg/	4r	.
.	8ff#/	.	.
4d\	8ee/	4r	.
.	8ff#/J	.	.
*	*v	*v	*
!!LO:LB:g=original
=96:|!	=96:|!	=96:|!
4G\	4gg\ 4b\	f
4r	(8d/L	.
.	8g/	.
4r	8b/	.
.	8ee/J)	.
=97	=97	=97
4r	4dd\	.
4d\ 4D\	4ff#\ 4cc\ 4a\	.
4d\ 4D\	4ff#\ 4cc\ 4a\	.
=98	=98	=98
4G\ 4GG\	4gg\ 4b\ 4g\	.
4r	(8ee\L	.
.	8dd\	.
4r	8b\	.
.	8g\J)	.
=99	=99	=99
4r	4d/	.
4D/ 4DD/	4ddd\ 4ff#\ 4cc\	.
4D/ 4DD/	4ddd\ 4ff#\ 4cc\	.
=100	=100	=100
4G/ 4GG/	4gg\ 4b\	.
4r	4r	.
(8e\L 8G\	(8gg\L 8cc\	.
8d\J)	8b\J	.
=101	=101	=101
4B\ 4G\	4gg\ 4g\)	.
4r	4r	.
(8e\L 8G\	(8gg\L 8cc\	.
8d\J)	8b\J	.
=102	=102	=102
4B\ 4G\	4gg\ 4g\)	.
4r	4r	ff
*	*8va	*
8D/L 8GG/	8ggg\L 8bb\ 8gg\	.
8D/J 8GG/	8ggg\J 8bb\ 8gg\	.
=103	=103	=103
2D/ 2GG/	2ggg\ 2bb\ 2gg\	.
4r	4r	.
*	*X8va	*
==	==	==
*-	*-	*-
!!!system-decoration: [(s1,s2)]
!!!RDF**kern: > = above
!!!RDF**kern: < = below
!!!RDF**dynam: p = p.
!!!RDF**dynam: f = f.
!!!RDF**dynam: ff = ff.
!!!EED: Leszek Kubiak
!!!EST: 2021-04-22
!!!ENC: Marcin Jachim
!!!END: 2021-04-02
